static/images/sports.svg

<svg width="100%" height="100%" viewBox="0 0 26 27" fill="none" xmlns="http://www.w3.org/2000/svg">
<path fill-rule="evenodd" clip-rule="evenodd" d="M20.1303 3.99991H19.2061L17.2519 3.99993L8.73379 3.99991H6.77963H3.42807C1.81631 3.99991 0.502402 5.34684 0.502402 7.00198L0.5 20.9978C0.5 22.653 1.8139 23.9999 3.42845 23.9999H22.5691C24.1837 23.9999 25.4976 22.653 25.4976 20.9978L25.5 7.00198C25.5 5.34684 24.1861 3.99991 22.5716 3.99991H20.1303ZM21.0059 9.23672V18.7095H19.0545V11.4104L17.1004 11.6493V9.69522L21.0059 9.23672ZM8.40547 18.7094V9.23658L4.5 9.69507V11.6492L6.45413 11.4102L6.45413 18.7094H8.40547ZM12 16H14V17.5H12V16ZM14 11H12V12.5H14V11Z" fill="currentColor"/>
</svg>

<svg xmlns="http://www.w3.org/2000/svg" fill="none" viewBox="0 0 26 27"><path fill="currentColor" fill-rule="evenodd" d="M20.13 4H3.428C1.816 4 .502 5.347.502 7.002L.5 20.998C.5 22.653 1.814 24 3.428 24H22.57c1.615 0 2.929-1.347 2.929-3.002L25.5 7.002C25.5 5.347 24.186 4 22.572 4H20.13Zm.876 5.237v9.472h-1.951V11.41l-1.955.24V9.694l3.906-.458Zm-12.6 9.472V9.237L4.5 9.695v1.954l1.954-.239v7.3h1.951ZM12 16h2v1.5h-2V16Zm2-5h-2v1.5h2V11Z" clip-rule="evenodd"/></svg>
